images/icons/youtube.svg

<svg width="16" height="12" viewBox="0 0 16 12" fill="none" xmlns="http://www.w3.org/2000/svg">
<path d="M15.2162 1.62301C14.6447 0.943629 13.5894 0.666504 11.5743 0.666504H4.25897C2.19762 0.666504 1.12453 0.961505 0.555138 1.6848C0 2.39003 0 3.42912 0 4.86725V7.60831C0 10.3944 0.658667 11.809 4.25897 11.809H11.5743C13.3218 11.809 14.2903 11.5645 14.9168 10.9649C15.5593 10.3501 15.8333 9.34625 15.8333 7.60831V4.86725C15.8333 3.35062 15.7904 2.3054 15.2162 1.62301ZM10.1651 6.61621L6.84322 8.35225C6.76896 8.39106 6.68774 8.41032 6.60663 8.41032C6.5148 8.41032 6.42318 8.3856 6.34202 8.33646C6.1892 8.24387 6.09588 8.07824 6.09588 7.89958V4.43864C6.09588 4.26029 6.18894 4.09481 6.34146 4.00216C6.49402 3.90952 6.68376 3.90319 6.84204 3.98541L10.1639 5.71026C10.3329 5.79801 10.439 5.97248 10.4393 6.16283C10.4395 6.35334 10.3338 6.52805 10.1651 6.61621Z" fill="#C3C3C3"/>
</svg>

<svg width="16" height="12" fill="none" xmlns="http://www.w3.org/2000/svg"><path d="M15.216 1.623c-.571-.68-1.627-.956-3.642-.956H4.26C2.198.667 1.125.962.555 1.685 0 2.39 0 3.429 0 4.867v2.741c0 2.786.659 4.201 4.259 4.201h7.315c1.748 0 2.716-.244 3.343-.844.642-.615.916-1.619.916-3.357v-2.74c0-1.517-.043-2.563-.617-3.245zm-5.05 4.993L6.842 8.352a.51.51 0 01-.747-.452V4.439a.51.51 0 01.746-.454l3.322 1.725a.51.51 0 01.001.906z" fill="#C3C3C3"/></svg>
